_inc/systems/logos/oric.svg

<?xml version="1.0" encoding="utf-8"?>
<svg viewBox="0 0 155.865 44.289" xmlns="http://www.w3.org/2000/svg">
  <path d="M 87.184 36.749 C 87.291 36.965 87.407 37.176 87.53 37.383 C 87.64 37.557 87.757 37.726 87.881 37.89 C 88.23 38.407 88.646 38.875 89.118 39.283 C 89.561 39.663 90.182 39.981 90.987 40.233 L 90.987 43.212 L 78.948 43.212 L 70.626 29.18 L 82.641 29.18 C 82.641 29.18 87.183 36.75 87.184 36.749 Z M 64.756 36.814 C 64.756 37.87 64.935 38.683 65.291 39.253 C 65.653 39.823 66.361 40.149 67.415 40.233 L 67.415 43.212 L 51.45 43.212 L 51.45 40.172 C 52.422 40.129 53.105 39.813 53.507 39.22 C 53.909 38.629 54.108 37.847 54.108 36.877 L 54.108 29.18 L 54.107 29.18 L 54.107 15.11 L 64.755 15.11 L 64.755 19.136 L 69.949 19.136 C 71.935 19.179 73.748 18.787 75.398 17.965 C 76.546 17.389 77.295 16.439 77.642 15.113 L 81.272 15.112 L 77.643 15.112 C 77.794 14.539 77.869 13.894 77.869 13.18 C 77.869 10.814 77.131 9.187 75.654 8.301 C 74.172 7.415 72.379 6.969 70.266 6.969 L 64.756 6.969 L 64.756 15.109 L 54.108 15.109 L 54.108 7.414 C 54.108 6.314 53.929 5.522 53.573 5.036 C 53.211 4.553 52.503 4.224 51.449 4.056 L 51.449 0.95 L 74.07 0.95 C 74.137 0.989 74.212 1.011 74.289 1.014 L 74.447 1.014 C 77.955 1.057 81.174 1.956 84.112 3.708 C 87.046 5.46 88.619 8.324 88.833 12.294 C 88.833 13.283 88.734 14.222 88.537 15.111 L 88.533 15.111 C 88.165 16.814 87.388 18.402 86.266 19.735 C 84.555 21.785 82.324 23.231 79.58 24.076 L 82.641 29.179 L 70.626 29.179 L 68.239 25.154 L 64.756 25.154 Z M 12.161 29.18 C 12.634 30.475 13.241 31.716 13.974 32.884 C 15.98 36.095 19.158 37.699 23.507 37.699 C 27.393 37.699 30.341 36.243 32.348 33.327 C 33.241 32.037 33.976 30.644 34.537 29.179 L 34.537 29.179 C 35.204 27.42 35.609 25.574 35.739 23.698 C 35.78 23.446 35.8 23.192 35.8 22.937 L 35.8 22.178 C 35.8 21.883 35.79 21.585 35.769 21.289 C 35.749 20.994 35.738 20.698 35.738 20.403 C 35.583 18.592 35.178 16.811 34.536 15.111 C 34.533 15.111 34.531 15.111 34.531 15.111 C 33.968 13.647 33.235 12.254 32.346 10.962 C 30.381 8.09 27.458 6.654 23.572 6.654 C 19.177 6.654 15.979 8.271 13.973 11.502 C 13.263 12.641 12.67 13.85 12.203 15.109 L 1.053 15.109 C 2.162 11.676 4.146 8.699 7.002 6.177 C 11.672 2.06 17.192 0 23.573 0 C 29.781 0 35.199 2.05 39.822 6.146 C 42.689 8.687 44.669 11.675 45.76 15.109 L 45.761 15.109 C 46.429 17.213 46.764 19.484 46.764 21.923 C 46.764 24.529 46.412 26.941 45.708 29.162 L 45.709 29.162 C 44.621 32.594 42.691 35.566 39.921 38.078 C 35.358 42.218 29.848 44.288 23.381 44.288 C 16.878 44.288 11.353 42.302 6.815 38.332 C 3.96 35.84 2.003 32.795 0.942 29.2 C 0.314 27.072 0 24.752 0 22.239 L 0 22.178 C 0 19.639 0.351 17.283 1.054 15.11 C 1.054 15.11 12.201 15.11 12.204 15.109 C 11.382 17.332 10.969 19.697 10.965 22.203 C 10.972 24.588 12.071 28.853 12.156 29.18 Z M 107.267 36.814 C 107.267 37.871 107.445 38.683 107.807 39.253 C 108.163 39.823 108.871 40.149 109.931 40.233 L 109.931 43.212 L 93.961 43.212 L 93.961 40.172 C 94.934 40.129 95.621 39.813 96.023 39.22 C 96.42 38.629 96.624 37.848 96.624 36.877 L 96.624 7.415 C 96.624 6.315 96.446 5.523 96.084 5.037 C 95.728 4.553 95.02 4.225 93.96 4.057 L 93.96 0.95 L 109.93 0.95 L 109.93 3.993 L 109.166 4.12 C 108.494 4.245 108.025 4.563 107.776 5.07 C 107.519 5.588 107.347 6.144 107.267 6.717 L 107.267 7.475 L 107.268 15.109 L 107.268 29.161 L 107.267 29.161 Z M 130.773 32.094 C 133.686 35.747 137.51 37.573 142.241 37.573 C 142.983 37.57 143.724 37.528 144.462 37.448 C 145.871 37.285 147.237 36.854 148.485 36.18 C 149.728 35.505 150.584 34.428 151.047 32.949 L 154.469 32.885 L 154.469 43.211 C 153.497 43.466 152.519 43.664 151.526 43.812 C 150.533 43.96 149.529 44.077 148.516 44.161 C 147.187 44.246 145.856 44.289 144.524 44.289 L 143.129 44.289 C 142.666 44.289 142.202 44.266 141.739 44.225 C 138.363 44.057 135.015 43.515 131.758 42.611 C 128.504 41.714 125.473 40.15 122.856 38.018 C 120.303 35.935 118.238 33.318 116.806 30.351 C 116.617 29.963 116.44 29.572 116.276 29.179 L 116.268 29.179 L 116.268 29.161 C 115.166 26.517 114.616 23.746 114.616 20.846 C 114.616 18.799 114.862 16.886 115.354 15.109 L 115.357 15.109 C 116.395 11.349 118.536 8.194 121.776 5.64 C 126.552 1.882 131.915 0 137.873 0 C 141.504 0 144.84 0.665 147.88 1.998 C 150.925 3.329 153.584 5.43 155.865 8.302 L 149.37 15.111 L 149.368 15.111 L 147.946 16.601 L 145.552 15.111 L 145.549 15.111 L 145.095 14.828 C 145.311 14.522 145.492 14.192 145.635 13.845 C 145.78 13.49 145.876 13.118 145.92 12.737 C 145.92 10.583 145.115 8.979 143.511 7.922 C 141.907 6.865 140.109 6.338 138.123 6.338 C 134.069 6.338 131.1 7.657 129.221 10.297 C 128.276 11.628 127.562 13.108 127.108 14.676 L 126.992 15.109 L 126.989 15.109 C 126.599 16.588 126.405 18.184 126.405 19.896 C 126.405 23.209 127.203 26.298 128.799 29.161 C 129.376 30.191 130.036 31.172 130.773 32.094 Z M 12.204 15.109 C 12.204 15.109 12.204 15.109 12.204 15.109 C 12.204 15.109 12.204 15.109 12.204 15.109 Z M 10.965 22.178 C 10.965 22.18 10.965 22.182 10.965 22.184 Z" style="fill: rgb(255, 255, 255);"/>
</svg>

<svg xmlns="http://www.w3.org/2000/svg" viewBox="0 0 155.87 44.29"><path d="M87.18 36.75a10 10 0 0 0 .7 1.14q.53.78 1.24 1.4.66.57 1.87.94v2.98H78.95l-8.32-14.03h12.01zm-22.42.06q0 1.59.53 2.44.54.86 2.13.98v2.98H51.45v-3.04q1.45-.06 2.06-.95.6-.9.6-2.34V15.1h10.64v4.03h5.2q2.97.06 5.45-1.18a4.2 4.2 0 0 0 2.24-2.85h3.63-3.63a8 8 0 0 0 .23-1.93q0-3.56-2.22-4.88a10.3 10.3 0 0 0-5.38-1.33h-5.51v8.14H54.1V7.4q0-1.65-.54-2.37-.54-.74-2.12-.98V.95h22.62q.1.06.22.06h.16q5.25.07 9.66 2.7t4.72 8.58a13 13 0 0 1-.3 2.82c-.36 1.7-1.14 3.3-2.26 4.63a14 14 0 0 1-6.69 4.34l3.06 5.1h-12l-2.4-4.03h-3.47Zm-52.6-7.63q.71 1.95 1.81 3.7Q17 37.7 23.51 37.7q5.82 0 8.84-4.37a19 19 0 0 0 3.4-9.63q.05-.37.05-.76v-.76l-.03-.9q-.03-.43-.03-.88a20 20 0 0 0-1.2-5.29 20 20 0 0 0-2.2-4.15q-2.94-4.3-8.77-4.3-6.6 0-9.6 4.84a20 20 0 0 0-1.77 3.6H1.05Q2.72 9.98 7 6.19A24.2 24.2 0 0 1 23.57 0q9.32 0 16.25 6.15a20 20 0 0 1 5.94 8.96q1 3.15 1 6.81 0 3.9-1.05 7.24a20 20 0 0 1-5.79 8.92q-6.84 6.2-16.54 6.2-9.76 0-16.56-5.95A19 19 0 0 1 .94 29.2 25 25 0 0 1 0 22.24v-.06q0-3.81 1.05-7.07H12.2a20 20 0 0 0-1.23 7.1c0 2.38 1.1 6.64 1.19 6.97m95.1 7.63q0 1.59.55 2.44.53.86 2.12.98v2.98H93.96v-3.04q1.46-.06 2.06-.95.6-.9.6-2.34V7.4q0-1.65-.54-2.37-.53-.74-2.12-.98V.95h15.97v3.04l-.76.13q-1.02.19-1.4.95a5 5 0 0 0-.5 1.65v22.44Zm23.51-4.72a14 14 0 0 0 11.47 5.48q1.11 0 2.22-.12 2.13-.26 4.03-1.27a5.3 5.3 0 0 0 2.56-3.23l3.42-.07v10.33q-1.45.38-2.94.6-1.5.23-3.01.35-2 .13-4 .13h-1.4q-.68 0-1.38-.06a46 46 0 0 1-9.98-1.62 24 24 0 0 1-8.9-4.6 22.5 22.5 0 0 1-6.58-8.83h-.01v-.02a21 21 0 0 1-1.65-8.31q0-3.07.73-5.74a18 18 0 0 1 6.43-9.47A25.4 25.4 0 0 1 137.88 0q5.44 0 10 2a21 21 0 0 1 7.99 6.3l-6.5 6.81-1.42 1.5-2.4-1.5-.46-.28q.33-.46.54-.98.23-.54.29-1.11 0-3.23-2.4-4.82a9.6 9.6 0 0 0-5.4-1.58q-6.08 0-8.9 3.96a15 15 0 0 0-2.11 4.38l-.12.43a19 19 0 0 0-.58 4.79q0 4.96 2.39 9.26a22 22 0 0 0 1.97 2.93m-119.8-9.91" style="fill:#fff"/></svg>
